!!!!SEGMENT: pl-kk--kk-i-382--053_witt-franz-xaver--jesu-dulcis-memoria.krn
!!!cenid: 18xx:1555
!!!COM: Witt, Franz Xaver
!!!COM-rismid: pe142499
!!!CDT: 1834/02/09-1888/12/02
!!!CNT: Czech
!!!OTL: Jesu dulcis memoria
!!!PDT:
!!!AGN: Sacred
!!!SMS-siglum: PL-Kk
!!!SMS-shelfmark: Kk.I.382
!!!SMS-shelfwork: 053 W
!!!SMS-variant:
!!!SMS-altvar:
!!!NIFC-rismid: 1001140797
!!!URL-scan: http://repozytorium.nifc.pl/skany/pl-kk-nut--i-382
!!!ONB-nifc: UWAGA: obsada: S/T1, T2, A/B1, B2. Skan 0039, 0112, 0183, 0259
**kern	**text	**dynam	**kern	**text	**dynam	**kern	**text	**dynam	**kern	**text	**dynam
*part4	*part4	*part4	*part3	*part3	*part3	*part2	*part2	*part2	*part1	*part1	*part1
*staff4	*staff4	*	*staff3	*staff3	*	*staff2	*staff2	*	*staff1	*staff1	*
*I"Basso II	*	*	*I"Alto vel Bas I	*	*	*I"Tenor II	*	*	*I"Soprano vel. Tenor I	*	*
*I'B.II	*	*	*I'A./B.I	*	*	*I'T.II	*	*	*I'S./T.I	*	*
*clefF4	*	*	*clefF4	*	*	*clefG2	*	*	*clefG2	*	*
*k[b-e-a-d-]	*	*	*k[b-e-a-d-]	*	*	*k[b-e-a-d-]	*	*	*k[b-e-a-d-]	*	*
*A-:	*	*	*A-:	*	*	*A-:	*	*	*A-:	*	*
*M4/4	*	*	*M4/4	*	*	*M4/4	*	*	*M4/4	*	*
*met(c)	*	*	*met(c)	*	*	*met(c)	*	*	*met(c)	*	*
=1	=1	=1	=1	=1	=1	=1	=1	=1	=1	=1	=1
*	*	*	*2\right	*	*	*2\right	*	*	*2\right	*	*
!LO:TX:t=P:problem:all\right:global	!	!	!LO:TX:t=P:problem:all\right:global	!	!	!LO:TX:t=P:problem:all\right:global	!	!	!LO:TX:t=P:problem:all\right:global	!	!
!LO:TX:a:t=dolce	!	!	!LO:TX:a:t=dolce	!	!	!LO:TX:a:t=dolce	!	!	!LO:TX:a:t=dolce	!	!
!LO:TX:rj:a:t=Moderato	!	!LO:DY:rj:a	!LO:TX:rj:a:t=Moderato	!	!	!LO:TX:rj:a:t=Moderato	!	!LO:DY:rj:a	!LO:TX:rj:a:t=Moderato	!	!LO:DY:rj:a:t=p.
2AA-/	Je-	p	2E-\	Je-	p	2a-\	Je-	p	2cc\	Je-	p
2AA-/	-su	.	2C\	-su	.	2e-/	-su	.	2a-\	-su	.
=2	=2	=2	=2	=2	=2	=2	=2	=2	=2	=2	=2
2AA-/	dul-	.	2F\	dul-	.	2a-/	dul-	.	2dd-\	dul-	.
4AA-/	-cis	.	4E-\	-cis	.	4a-/	-cis	.	4cc\	-cis	.
4D-/	me-	.	4E-\	me-	.	4g/	me-	.	4b-\	me-	.
=3	=3	=3	=3	=3	=3	=3	=3	=3	=3	=3	=3
!	!	!	!	!	!	!LO:TX:a:t=P:problem:diminuendo like accent	!	!	!LO:TX:a:t=P:problem:diminuendo like accent	!	!
4C/	-mo-	.	(4E-\	-mo-	.	2.a-/	-mo-	>	2.ee-\	-mo-	>
!	!	!	!LO:TX:a:t=P:problem:diminuendo like accent	!	!	!	!	!	!	!	!
4E-/	.	.	4A-\)	.	>	.	.	.	.	.	.
4A-\	.	.	4c\	-ri-	]	.	.	.	.	.	.
!	!	!	!LO:TX:a:t=P:problem:diminuendo like accent	!	!	!	!	!	!	!	!
4D-\	-ri-	.	4d-\	-a	.	4a-/	-ri-	]	4ff\	-ri-	]
.	.	.	.	.	>]	.	.	.	.	.	.
=4	=4	=4	=4	=4	=4	=4	=4	=4	=4	=4	=4
*2\right	*	*	*	*	*	*	*	*	*	*	*
!	!	!	!	!	!	!LO:TX:a:t=P:problem:diminuendo like accent	!	!	!	!	!
2A-\	-a	.	2c\	dans	.	2a-/	-a	>	2ee-\	-a	.
!	!	!	!	!	!LO:DY:rj:a	!	!	!	!	!	!
.	.	f	.	.	.	.	.	.	.	.	.
2G\	dans	.	2B-\	.	f	2b-/	dans	]	4r	.	.
.	.	.	.	.	.	.	.	f	.	.	f
.	.	.	.	.	.	.	.	.	4ee-\	dans	.
=5	=5	=5	=5	=5	=5	=5	=5	=5	=5	=5	=5
2F\	ve-	.	2A-\	ve-	.	4cc\	ve-	.	2aa-\	ve-	.
.	.	.	.	.	.	4ddn\	.	.	.	.	.
2E-\	-ra	.	2B-\	-ra	.	2ee-\	-ra	.	2gg\	-ra	.
=6	=6	=6	=6	=6	=6	=6	=6	=6	=6	=6	=6
2BB-/	cor-	.	(4B-\	cor-	.	2ddn\	cor-	.	(4gg\	cor-	.
.	.	.	4A-\)	.	.	.	.	.	4ff\)	.	.
2C/	-dis	.	2G\	-dis	.	2cc\	-dis	.	2ee-\	-dis	.
!LO:LB:g=original	!	!	!LO:LB:g=original	!	!	!LO:LB:g=original	!	!	!LO:LB:g=original	!	!
=7	=7	=7	=7	=7	=7	=7	=7	=7	=7	=7	=7
(2AA-/	gau-	.	2.A-\	gau-	.	2.cc\	gau-	.	2ff\	gau-	.
4A-\)	.	.	.	.	.	.	.	.	4cc\	.	.
4F\	-di-	.	4A-\	-di-	.	4b-\	-di-	.	4ddn\	-di-	.
=8	=8	=8	=8	=8	=8	=8	=8	=8	=8	=8	=8
(4E-\	-a	.	(4G\	-a	.	2.b-^\	-a	.	2.ee-\	-a	.
!LO:TX:a:t=P:problem:diminuendo like accent	!	!	!LO:TX:a:t=P:problem:diminuendo like accent	!	!	!	!	!	!	!	!
4F\)	.	>	4A-\)	.	>	.	.	.	.	.	.
4G\	.	]	4B-\	.	]	.	.	.	.	.	.
!LO:TX:a:t=P:problem:diminuendo like accent	!	!	!	!	!	!	!	!	!	!	!
4E-\	sed	>	4G\	sed	.	4b-^\	sed	.	4d-Xc^\	sed	.
.	.	]	.	.	.	.	.	.	.	.	.
=9	=9	=9	=9	=9	=9	=9	=9	=9	=9	=9	=9
!	!	!	!	!	!LO:DY:rj:a	!	!	!	!	!	!LO:DY:rj:a
2AA-/	su-	.	(4A-\	su-	p	2a-\	su-	p	2cc\	in-	p
.	.	.	4E-\)	.	.	.	.	.	.	.	.
.	.	p	.	.	.	.	.	.	.	.	.
2AA-/	-per-	.	2C/	-per-	.	2e-/	-per-	.	2a-/	-per-	.
=10	=10	=10	=10	=10	=10	=10	=10	=10	=10	=10	=10
2.AA-/	-mel	.	(2F\	-mel	.	2.a-/	-mel	.	(2dd-\	-mel	.
.	.	.	4E-\)	.	.	.	.	.	4cc\)	.	.
4D-/	et	.	4E-\	et	.	4g/	et	.	4b-\	et	.
=11	=11	=11	=11	=11	=11	=11	=11	=11	=11	=11	=11
!	!	!	!	!	!	!LO:TX:a:t=P:problem:diminuendo like accent	!	!	!	!	!
(4C/	om-	.	(4E-\	om-	.	2.a-/	om-	.	2.ee-\	om-	.
4E-/	.	.	4A-\	.	.	.	.	>	.	.	.
!LO:TX:a:t=P:problem:diminuendo like accent	!	!	!	!	!	!	!	!	!	!	!
4A-\)	.	>	4c\)	.	.	.	.	.	.	.	.
4D-\	-ni-	]	4d-\	-ni-	.	4a-/	-ni-	]	4ff\	-ni-	.
=12	=12	=12	=12	=12	=12	=12	=12	=12	=12	=12	=12
2A-\	-a	.	2c\	-a	.	2a-/	-a	.	2ee-\	-a	.
.	.	f	.	.	.	.	.	.	.	.	.
4A-\	e-	.	2r	.	.	2r	.	.	2r	.	.
4A-\	-jus	.	.	.	.	.	.	.	.	.	.
!LO:LB:g=original	!	!	!LO:PB:g=original	!	!	!	!	!	!	!	!
=13	=13	=13	=13	=13	=13	=13	=13	=13	=13	=13	=13
!	!	!	!	!	!LO:DY:rj:a	!	!	!LO:DY:rj:a	!	!	!LO:DY:rj:a
2G-X\	e-	.	2A-\	e-	f	2cc\	e-	f	2ee-\	e-	f
2G-\	-jus	.	2A-\	-jus	.	2cc\	-jus	.	2aa-\	-jus	.
!	!	!	!	!	!	!LO:PB:g=original	!	!	!LO:LB:g=original	!	!
=14	=14	=14	=14	=14	=14	=14	=14	=14	=14	=14	=14
2F\	dul-	.	2A-\	dul-	.	2dd-\	dul-	.	2aa-\	dul-	.
4D-\	-cis	.	4A-\	-cis	.	4dd-\	-cis	.	4ff\	-cis	.
4D-\	prae-	.	4F\	prae-	.	4a-/	prae-	.	4dd-\	prae-	.
=15	=15	=15	=15	=15	=15	=15	=15	=15	=15	=15	=15
2E-\	-sen-	.	2E-\	-sen-	.	(4a-/	-sen-	.	2b-\	-sen-	.
.	.	.	.	.	.	4g/)	.	.	.	.	.
2EE-/	-ti-	.	2E-\	-ti-	.	(4f/	-ti-	.	2ee-\	-ti-	.
.	.	.	.	.	.	4g/)	.	.	.	.	.
=16	=16	=16	=16	=16	=16	=16	=16	=16	=16	=16	=16
2.AA-/	-a	.	2.E-\	-a	.	2.a-/	-a	.	2.cc\	-a	.
.	.	p	.	.	.	.	.	.	.	.	.
4AA-/	sed	.	4r	.	.	4a-/	sed	.	4cc\	sed	p
.	.	.	.	.	.	.	.	p	.	.	.
=17	=17	=17	=17	=17	=17	=17	=17	=17	=17	=17	=17
!	!	!	!LO:TX:a:t=1	!	!	!	!	!	!	!	!
2E-\	su-	.	1r	.	.	(2g/	su-	.	(2b-\	su-	.
2E-\	-per-	.	.	.	.	4f/)	.	.	4a-\)	.	.
.	.	.	.	.	.	4g/	-per-	.	4b-\	-per-	.
=18	=18	=18	=18	=18	=18	=18	=18	=18	=18	=18	=18
2.AA-/	-mel	.	4r	.	.	2.a-/	-mel	.	2.cc\	-mel	.
.	.	.	4E-\	sed	.	.	.	.	.	.	.
.	.	.	4A-\	su-	.	.	.	.	.	.	.
4AA-/	et	.	4G-X\	-per-	.	4a-/	et	.	4cc\	et	.
=19	=19	=19	=19	=19	=19	=19	=19	=19	=19	=19	=19
2F\	om-	<	2F\	-mel	.	(2an/	om-	.	(2cc\	om-	.
2F\	-ni-	.	2r	.	.	4g/)	.	.	4b-\)	.	.
.	.	.	.	.	.	4a/	-ni-	.	4cc\	-ni-	.
!LO:LB:g=original	!	!	!LO:LB:g=original	!	!	!LO:LB:g=original	!	!	!	!	!
=20	=20	=20	=20	=20	=20	=20	=20	=20	=20	=20	=20
(2.BB-/	-a	.	4r	.	.	2.b-\	-a	.	1dd-\	-a	.
.	.	.	4F\	et	.	.	.	.	.	.	.
.	.	.	4B-\	om-	.	.	.	.	.	.	.
4B-\)	.	.	4B-\	-ni-	.	[4dd-^\	e-	.	.	.	.
=21	=21	=21	=21	=21	=21	=21	=21	=21	=21	=21	=21
2A-\	e-	.	4A-\	-a	.	(4dd-\]	.	.	2ee-\	e-	.
.	.	.	2A-^\	e-	.	4cc\)	.	.	.	.	.
2A-\	-jus	.	.	.	.	(4b-\	-jus	.	(4dd-\	-jus	.
.	.	.	4A-\	-jus	.	4cc\)	.	.	4ee-\)	.	.
!	!	!	!	!	!	!	!	!	!LO:LB:g=original	!	!
=22	=22	=22	=22	=22	=22	=22	=22	=22	=22	=22	=22
!	!	!LO:DY:rj	!	!	!	!	!	!LO:DY:rj:a	!	!	!LO:DY:rj:a
2D-\	dul-	f	4A-\	dul-	.	(4dd-\	dul-	f	(4ff\	dul-	f
.	.	.	4d-\	.	.	4ff\)	.	.	4aa-\)	.	.
4D-\	-cis	.	4A-\	-cis	.	4dd-\	-cis	.	4ff\	-cis	.
4D-\	prae-	.	4F\	prae-	.	4b-\	prae-	.	4dd-\	prae-	.
=23	=23	=23	=23	=23	=23	=23	=23	=23	=23	=23	=23
2E-\	-sen-	.	2E-\	-sen-	.	2a-/	-sen-	.	2cc\	-sen-	.
2E-\	-ti-	.	(4E-\	-ti-	.	2g/	-ti-	.	2b-\	-ti-	.
.	.	.	4D-\)	.	.	.	.	.	.	.	.
=24	=24	=24	=24	=24	=24	=24	=24	=24	=24	=24	=24
!	!	!	!	!	!LO:DY:rj:a	!	!	!	!	!	!
1AA-/;	-a.	.	1C/;	-a	p	1e-/;	-a.	p	1a-/;	-a	.
==	==	==	==	==	==	==	==	==	==	==	==
*-	*-	*-	*-	*-	*-	*-	*-	*-	*-	*-	*-
!!!system-decoration: [(s1,s2,s3,s4)]
!!!EED: Leszek Kubiak
!!!EST: 2021-02-11
!!!ENC: Andrzej Gręziak
!!!END: 2021-01-30
